;FLAVOR:Marlin
;TIME:697
;Filament used: 1.22272m
;Layer height: 3
;MINX:145.906
;MINY:75.755
;MINZ:0.3
;MAXX:174.093
;MAXY:122.918
;MAXZ:6.3
;TARGET_MACHINE.NAME:Unknown
;Generated with Cura_SteamEngine 5.5.0
M104 S270
M105
M109 S270
M82 ;absolute extrusion mode
G28 ;Home
G1 Z15.0 F6000 ;Move the platform down 15mm
;Prime the extruder
G92 E0
G1 F200 E3
G92 E0
G92 E0
G92 E0
;LAYER_COUNT:3
;LAYER:0
M107
;MESH:limit switch bracket for Z.STL
G0 F3600 X158.776 Y122.857 Z0.3
;TYPE:WALL-OUTER
G1 F70.6 X159.533 Y122.918 E0.18214
G1 X160.467 Y122.918 E0.40615
G1 X161.224 Y122.857 E0.58829
G0 F3600 X169.091 Y119.339
G0 X171.279 Y103.434
G1 F56.4 X171.843 Y103.097 E0.78545
G1 F58.1 X172.241 Y102.864 E0.91985
G1 F59.4 X172.954 Y102.311 E1.17703
G1 X172.573 Y103.168 E1.44435
G1 F58.1 X172.374 Y103.584 E1.57874
G1 F56.4 X172.033 Y104.266 E1.80755
G1 F55.2 X171.97 Y104.949 E2.01782
G1 F55 X171.97 Y106.187 E2.39863
G1 F55.5 X172.022 Y106.65 E2.54078
G1 F56.4 X172.079 Y107.193 E2.70456
G1 F57.7 X172.164 Y108.211 E3.00424
G1 F58.8 X172.198 Y108.762 E3.16309
G1 F59.6 X172.239 Y109.747 E3.4433
G1 F60.1 X172.256 Y110.797 E3.73891
G1 F60.3 X172.256 Y117.143 E5.52024
G1 F60 X172.222 Y118.73 E5.96835
G1 F59.3 X172.19 Y119.3 E6.13126
G1 F59 X172.19 Y122.35 E7.00618
G1 X167.281 Y122.35 E8.41438
G1 F59.3 X166.511 Y122.384 E8.63428
G1 F60.2 X165.971 Y122.435 E8.78687
G1 F61.3 X165.34 Y122.496 E8.96193
G1 F62.5 X164.789 Y122.546 E9.11189
G1 F63.5 X164.24 Y122.596 E9.25875
G1 F65.2 X163.197 Y122.688 E9.53075
G1 F67.3 X162.208 Y122.775 E9.78044
G1 F69 X161.439 Y122.839 E9.96987
G1 F69 X162.404 Y122.594 E10.21408
G1 F67.4 X163.098 Y122.294 E10.40409
G1 F65.7 X163.507 Y122.079 E10.5231
G1 F64.6 X164.194 Y121.634 E10.73746
G1 F63 X164.745 Y121.138 E10.93671
G1 F61.3 X165.087 Y120.797 E11.07007
G1 F60.2 X165.426 Y120.374 E11.22257
G1 F59.3 X165.701 Y119.938 E11.36964
G1 F59.2 X166.018 Y119.21 E11.59685
G1 F59.5 X166.217 Y118.422 E11.82827
G1 F59.9 X166.281 Y117.395 E12.1191
G1 F60.2 X166.281 Y110.545 E14.04544
G1 F59.7 X166.206 Y109.507 E14.34065
G1 F58.8 X166.104 Y108.965 E14.49935
G1 F57.7 X166.019 Y108.456 E14.65073
G1 F56.4 X165.854 Y107.935 E14.81467
G1 F55.5 X165.802 Y107.704 E14.88692
G1 F55.9 X165.556 Y107.48 E14.98771
G1 F57.3 X165.208 Y107.064 E15.14791
G1 F58.6 X164.857 Y106.731 E15.2877
G1 F59.4 X164.174 Y106.036 E15.56558
G1 F59.5 X163.501 Y105.518 E15.80736
G1 F59.6 X162.61 Y105.039 E16.09479
G1 F59.7 X161.628 Y104.693 E16.38993
G1 F59.9 X160.555 Y104.508 E16.69777
G1 F60 X159.476 Y104.503 E17.00233
G1 F60 X158.448 Y104.675 E17.29656
G1 F59.8 X157.445 Y105.009 E17.59574
G1 F59.7 X156.543 Y105.493 E17.88626
G1 F59.5 X155.832 Y106.03 E18.13976
G1 F59.4 X155.16 Y106.715 E18.4134
G1 F58.6 X154.792 Y107.064 E18.55989
G1 F57.3 X154.444 Y107.48 E18.72009
G1 F55.9 X154.198 Y107.704 E18.82088
G1 F55.5 X154.146 Y107.935 E18.89313
G1 F56.4 X153.981 Y108.456 E19.05704
G1 F57.7 X153.896 Y108.965 E19.2084
G1 F58.8 X153.794 Y109.507 E19.36707
G1 F59.7 X153.719 Y110.545 E19.66224
G1 F60.2 X153.719 Y117.395 E21.58826
G1 F60 X153.78 Y118.376 E21.86582
G1 F59.4 X153.974 Y119.192 E22.10504
G1 F59 X154.299 Y119.938 E22.33847
G1 F59.3 X154.574 Y120.374 E22.48554
G1 F60.2 X154.913 Y120.797 E22.63803
G1 F61.3 X155.255 Y121.138 E22.77139
G1 F63 X155.806 Y121.634 E22.97064
G1 F64.6 X156.493 Y122.079 E23.185
G1 F65.7 X156.902 Y122.294 E23.30402
G1 F67.4 X157.594 Y122.593 E23.49346
G1 F69 X158.552 Y122.838 E23.73601
G1 F69 X157.792 Y122.775 E23.92321
G1 F67.3 X156.803 Y122.687 E24.17293
G1 F65.2 X155.76 Y122.596 E24.4449
G1 F63.5 X155.211 Y122.546 E24.59176
G1 F62.5 X154.66 Y122.496 E24.74173
G1 F61.3 X154.029 Y122.435 E24.91679
G1 F60.2 X153.489 Y122.384 E25.06937
G1 F59.3 X152.719 Y122.35 E25.28927
G1 F59 X147.81 Y122.35 E26.69747
G1 X147.81 Y119.3 E27.5724
G1 F59.3 X147.778 Y118.73 E27.73531
G1 F60 X147.744 Y117.143 E28.18342
G1 F60.3 X147.744 Y110.797 E29.96475
G1 F60.2 X147.762 Y109.747 E30.26031
G1 F59.6 X147.803 Y108.762 E30.54047
G1 F58.8 X147.836 Y108.211 E30.69929
G1 F57.7 X147.922 Y107.193 E30.99893
G1 F56.4 X147.978 Y106.65 E31.16266
G1 F55.5 X148.03 Y106.187 E31.30481
G1 F55 X148.03 Y105.025 E31.66224
G1 F55.1 X147.993 Y104.411 E31.85108
G1 F55.9 X147.778 Y103.994 E31.99318
G1 F57.4 X147.518 Y103.451 E32.1709
G1 F59 X147.258 Y102.907 E32.3438
G1 F60.6 X147.069 Y102.479 E32.47458
G1 F61.2 X147.069 Y102.308 E32.52186
G1 X147.209 Y102.371 E32.5643
G1 F60.6 X147.575 Y102.662 E32.695
G1 F59 X148.019 Y102.955 E32.84755
G1 F57.4 X148.463 Y103.248 E33.00458
G1 F55.9 X148.896 Y103.427 E33.1465
G1 F55.1 X149.334 Y103.397 E33.28128
G1 F55 X150.06 Y103.161 E33.5161
G1 F55.9 X150.306 Y102.938 E33.61668
G1 F57.8 X150.885 Y102.432 E33.842
G1 F59.2 X151.248 Y102.087 E33.98512
G1 F59.5 X151.604 Y101.717 E34.13115
G1 F59.5 X151.914 Y101.268 E34.28649
G1 F59.6 X152.24 Y100.629 E34.49035
G1 F59.7 X152.462 Y99.874 E34.71343
G1 F59.9 X152.55 Y99.166 E34.91514
G1 F60 X152.544 Y98.689 E35.04983
G1 F60 X152.426 Y97.908 E35.2727
G1 X152.062 Y97.021 E35.54322
G1 X151.753 Y96.502 E35.71365
G1 X151.215 Y95.908 E35.93978
G1 X150.749 Y95.525 E36.10998
G1 X150.033 Y95.11 E36.34349
G1 X149.612 Y94.952 E36.47036
G1 X148.796 Y94.788 E36.70521
G1 F60.7 X148.329 Y95.012 E36.84977
G1 F62 X147.872 Y95.3 E36.99731
G1 F63.1 X147.483 Y95.54 E37.11991
G1 F64.4 X146.889 Y96.068 E37.32876
G1 F65.3 X146.772 Y96.135 E37.36372
G1 X146.772 Y96 E37.39873
G1 F64.4 X147.074 Y95.197 E37.62417
G1 F63.1 X147.244 Y94.772 E37.74695
G1 F62 X147.495 Y94.168 E37.9256
G1 F60.7 X147.76 Y93.564 E38.10969
G1 F60 X147.76 Y84.453 E40.68044
G1 F60.1 X147.719 Y83.572 E40.92883
G1 F60.7 X147.526 Y83.143 E41.06004
G1 F62.2 X147.147 Y82.242 E41.32614
G1 F64.1 X146.84 Y81.44 E41.55305
G1 F65.4 X146.693 Y81.029 E41.66608
G1 F65.8 X146.693 Y80.862 E41.70903
G1 F65.4 X147.134 Y81.25 E41.86112
G1 F64.3 X147.562 Y81.615 E42.0092
G1 F63 X148.001 Y81.88 E42.1469
G1 F61.8 X148.44 Y82.145 E42.28736
G1 F60.7 X148.884 Y82.299 E42.41844
G1 F60.1 X149.436 Y82.24 E42.57479
G1 F60 X149.858 Y82.086 E42.70154
G1 X150.486 Y81.789 E42.89755
G1 X150.989 Y81.431 E43.07176
G1 X151.616 Y80.829 E43.31701
G1 X152.137 Y80.017 E43.58923
G1 X152.415 Y79.17 E43.84076
G1 F60.5 X152.33 Y78.404 E44.0563
G1 F61.3 X152.244 Y78.184 E44.12151
G1 F62.5 X151.854 Y77.575 E44.3175
G1 F63.8 X151.604 Y77.198 E44.43745
G1 F65.1 X151.098 Y76.666 E44.62842
G1 F66.3 X150.749 Y76.378 E44.7439
G1 X151.179 Y76.522 E44.85963
G1 F65.1 X151.928 Y76.795 E45.06699
G1 F63.8 X152.349 Y76.959 E45.1868
G1 F62.8 X152.866 Y77.173 E45.33766
G1 F61.6 X153.383 Y77.388 E45.49143
G1 F60.5 X154.53 Y77.6 E45.81764
G1 F60 X166.072 Y77.601 E49.07431
G1 F60.3 X166.49 Y77.502 E49.19501
G1 F61.1 X167.056 Y77.261 E49.36543
G1 F62.4 X167.623 Y77.019 E49.5328
G1 F63.5 X168.049 Y76.851 E49.65497
G1 F64.7 X168.813 Y76.567 E49.86816
G1 F65.5 X168.909 Y76.568 E49.89296
G1 X168.859 Y76.649 E49.91755
G1 F64.7 X168.336 Y77.206 E50.11739
G1 F63.5 X168.082 Y77.587 E50.23955
G1 F62.4 X167.825 Y78.02 E50.37625
G1 F61.1 X167.568 Y78.454 E50.51598
G1 F60.3 X167.522 Y78.882 E50.63694
G1 F60 X167.648 Y79.441 E50.79862
G1 X167.822 Y79.862 E50.92716
G1 X168.15 Y80.483 E51.12532
G1 X168.529 Y80.97 E51.29943
G1 X169.021 Y81.435 E51.49045
G1 X169.536 Y81.801 E51.66872
G1 X170.356 Y82.184 E51.92408
G1 X171.035 Y82.339 E52.12059
G1 F60.9 X171.823 Y82.028 E52.3562
G1 F62.2 X172.235 Y81.813 E52.4826
G1 F63.6 X172.894 Y81.295 E52.70559
G1 F65 X173.263 Y80.947 E52.83766
G1 X173.108 Y81.433 E52.97049
G1 F63.6 X172.77 Y82.303 E53.21879
G1 F62.2 X172.591 Y82.731 E53.34498
G1 F60.9 X172.24 Y83.79 E53.65526
G1 F60 X172.24 Y93.524 E56.40178
G1 F60.6 X172.467 Y94.135 E56.58398
G1 F61.8 X172.723 Y94.747 E56.76573
G1 F62.9 X172.895 Y95.174 E56.88958
G1 F64.2 X173.2 Y95.983 E57.11743
G1 F65.1 X173.2 Y96.088 E57.14474
G1 X173.108 Y96.037 E57.17209
G1 F64.2 X172.504 Y95.505 E57.38421
G1 F62.9 X172.111 Y95.264 E57.50824
G1 F61.8 X171.642 Y94.974 E57.65931
G1 F60.6 X171.174 Y94.791 E57.79977
G1 F60 X170.372 Y94.958 E58.03092
G1 X169.96 Y95.114 E58.15522
G1 X169.242 Y95.531 E58.3895
G1 X168.748 Y95.936 E58.56974
G1 X168.284 Y96.474 E58.7702
G1 X167.905 Y97.079 E58.97164
G1 X167.636 Y97.765 E59.17955
G1 X167.52 Y98.21 E59.3093
G1 X167.454 Y98.744 E59.46112
G1 F60 X167.458 Y99.219 E59.5952
G1 F59.9 X167.537 Y99.877 E59.7825
G1 F59.7 X167.757 Y100.63 E60.00488
G1 F59.6 X168.091 Y101.277 E60.2118
G1 F59.5 X168.403 Y101.724 E60.36695
G1 F59.5 X168.752 Y102.087 E60.51014
G1 F59.2 X169.115 Y102.432 E60.65326
G1 F57.8 X169.694 Y102.938 E60.87858
G1 F55.9 X169.94 Y103.161 E60.97916
G1 F55 X170.776 Y103.408 E61.2473
G1 F55.2 X171.279 Y103.434 E61.40171
G0 F3600 X170.776 Y103.408
G0 X169.94 Y103.161
G0 X169.694 Y102.938
G0 X169.115 Y102.432
G0 X168.752 Y102.087
G0 X168.734 Y102.069
G0 X166.496 Y104.063
G0 X169.157 Y85.02
G0 X173.68 Y76.16
G1 F70.6 X172.911 Y75.886 E61.5975
G1 X171.9 Y75.755 E61.842
G1 X171.276 Y75.764 E61.99168
G1 X174.081 Y78.499 E62.93127
G1 X174.093 Y78.083 E63.03108
G1 X174.034 Y77.414 E63.19216
G1 X173.948 Y76.983 E63.29756
G1 X173.68 Y76.16 E63.50515
G0 F3600 X169.157 Y85.02
G0 X155.174 Y80.68
G0 X148.907 Y75.789
G1 F70.6 X148.505 Y75.755 E63.60191
G1 X147.883 Y75.764 E63.7511
G1 X147.058 Y75.897 E63.95152
G1 X146.32 Y76.16 E64.13942
G1 X146.047 Y77.004 E64.35216
G1 X145.966 Y77.417 E64.4531
G1 X145.906 Y78.096 E64.61659
G1 X145.942 Y78.712 E64.76458
G0 F3600 X150.844 Y85.026
G0 X160.917 Y95.809
;TYPE:SKIN
G1 F42.1 X160.654 Y96.982 E65.24792
G1 X160.573 Y97.531 E65.47105
G1 X159.424 Y97.534 E65.93304
G1 X159.294 Y96.621 E66.30383
G1 X158.904 Y95.289 E66.86188
G1 X158.19 Y93.636 E67.58586
G1 X157.483 Y92.529 E68.11399
G1 X156.98 Y91.891 E68.44065
G1 X156.131 Y90.948 E68.95084
G1 X155.754 Y90.576 E69.16379
G1 X154.736 Y89.798 E69.67895
G1 X154.736 Y87.342 E70.66645
G1 X155.562 Y86.707 E71.08536
G1 X156.563 Y85.742 E71.64441
G1 X157.22 Y84.967 E72.05292
G1 X157.502 Y84.576 E72.24676
G1 X162.501 Y84.577 E74.25673
G1 X162.844 Y85.04 E74.48841
G1 X163.435 Y85.743 E74.85769
G1 X164.233 Y86.51 E75.30272
G1 X164.722 Y86.928 E75.56138
G1 X165.265 Y87.339 E75.83519
G1 X165.265 Y89.799 E76.8243
G1 X164.386 Y90.466 E77.26796
G1 X163.557 Y91.282 E77.73566
G1 X162.813 Y92.138 E78.19167
G1 X162.213 Y92.978 E78.60673
G1 X161.567 Y94.132 E79.13848
G1 X160.917 Y95.809 E79.86163
;MESH:NONMESH
G0 F600 X160.917 Y95.809 Z3.3
G0 F3600 X159.995 Y92.521
G0 X154.355 Y103.147
G0 X150.78 Y118.622
G0 X158.776 Y122.857
;TIME_ELAPSED:289.489526
;LAYER:1
M106 S255
;TYPE:WALL-OUTER
;MESH:limit switch bracket for Z.STL
G1 F70.6 X159.533 Y122.918 E81.68307
G1 X160.467 Y122.918 E83.92312
G1 X161.224 Y122.857 E85.74456
G0 F5400 X169.091 Y119.339
G0 X170.776 Y103.41
G1 F56 X171.591 Y103.186 E88.29954
G1 F57.3 X171.803 Y103.081 E88.99822
G1 F58.8 X172.422 Y102.643 E91.18059
G1 F60.7 X172.783 Y102.359 E92.46192
G1 F61.3 X172.946 Y102.285 E92.9559
G1 X172.946 Y102.485 E93.5078
G1 F60.7 X172.761 Y102.906 E94.79061
G1 F58.8 X172.401 Y103.679 E97.24475
G1 F57.3 X172.296 Y103.891 E97.94343
G1 F56.5 X172.133 Y104.42 E99.60213
G1 F55.5 X171.97 Y104.949 E101.28999
G1 F55 X171.97 Y106.188 E105.10115
G1 F55.5 X172.022 Y106.65 E106.51964
G1 F56.4 X172.079 Y107.193 E108.15749
G1 F57.7 X172.164 Y108.211 E111.15419
G1 F58.8 X172.198 Y108.762 E112.74274
G1 F59.6 X172.239 Y109.747 E115.5448
G1 F60.1 X172.256 Y110.797 E118.50094
G1 F60.3 X172.256 Y117.143 E136.31419
G1 F60 X172.222 Y118.73 E140.79531
G1 F59.3 X172.19 Y119.3 E142.42441
G1 F59 X172.19 Y122.35 E151.17367
G1 X167.281 Y122.35 E165.25567
G1 F59.3 X166.511 Y122.384 E167.45469
G1 F60.2 X165.971 Y122.435 E168.98054
G1 F61.3 X165.34 Y122.496 E170.7311
G1 F62.5 X164.789 Y122.546 E172.23077
G1 F63.5 X164.24 Y122.596 E173.69939
G1 F65.2 X163.197 Y122.688 E176.41935
G1 F67.3 X162.208 Y122.775 E178.91626
G1 F69 X161.439 Y122.839 E180.81051
G1 F69 X162.404 Y122.594 E183.25265
G1 F67.4 X163.098 Y122.294 E185.15271
G1 F65.7 X163.507 Y122.079 E186.34283
G1 F64.6 X164.194 Y121.634 E188.48648
G1 F63 X164.745 Y121.138 E190.47894
G1 F61.3 X165.087 Y120.797 E191.81256
G1 F60.2 X165.426 Y120.374 E193.33749
G1 F59.3 X165.701 Y119.938 E194.80821
G1 F59.2 X166.018 Y119.21 E197.08035
G1 F59.5 X166.217 Y118.422 E199.39458
G1 F59.9 X166.281 Y117.395 E202.30281
G1 F60.2 X166.281 Y110.545 E221.56623
G1 F59.7 X166.206 Y109.507 E224.51833
G1 F58.8 X166.104 Y108.965 E226.10534
G1 F57.7 X166.019 Y108.456 E227.61917
G1 F56.4 X165.854 Y107.935 E229.25858
G1 F55.5 X165.802 Y107.704 E229.98101
G1 F55.9 X165.556 Y107.48 E230.98892
G1 F57.3 X165.207 Y107.064 E232.59256
G1 F58.6 X164.858 Y106.732 E233.98431
G1 F59.4 X164.192 Y106.054 E236.69407
G1 F59.5 X163.494 Y105.515 E239.20312
G1 F59.6 X162.547 Y105.006 E242.25487
G1 F59.8 X161.544 Y104.672 E245.24566
G1 F60 X160.487 Y104.505 E248.26608
G1 F60 X159.512 Y104.506 E251.01712
G1 F60 X158.456 Y104.672 E254.03431
G1 F59.9 X157.452 Y105.007 E257.02818
G1 F59.7 X156.551 Y105.491 E259.92844
G1 F59.6 X155.808 Y106.054 E262.57848
G1 F59.4 X155.16 Y106.715 E265.21683
G1 F58.6 X154.793 Y107.064 E266.67963
G1 F57.3 X154.444 Y107.48 E268.28327
G1 F55.9 X154.198 Y107.704 E269.29118
G1 F55.5 X154.146 Y107.935 E270.0135
G1 F56.4 X153.981 Y108.456 E271.65265
G1 F57.7 X153.896 Y108.965 E273.16624
G1 F58.8 X153.794 Y109.507 E274.75299
G1 F59.7 X153.719 Y110.545 E277.7046
G1 F60.2 X153.719 Y117.395 E296.9648
G1 F60 X153.78 Y118.376 E299.74043
G1 F59.4 X153.974 Y119.192 E302.13265
G1 F59 X154.299 Y119.938 E304.4669
G1 F59.3 X154.574 Y120.374 E305.93762
G1 F60.2 X154.913 Y120.797 E307.46255
G1 F61.3 X155.255 Y121.138 E308.79618
G1 F63 X155.806 Y121.634 E310.78863
G1 F64.6 X156.493 Y122.079 E312.93228
G1 F65.7 X156.902 Y122.294 E314.1224
G1 F67.4 X157.594 Y122.593 E316.01685
G1 F69 X158.552 Y122.838 E318.44235
G1 F69 X157.792 Y122.775 E320.31438
G1 F67.3 X156.803 Y122.687 E322.81151
G1 F65.2 X155.76 Y122.596 E325.53125
G1 F63.5 X155.211 Y122.546 E326.99986
G1 F62.5 X154.66 Y122.496 E328.49954
G1 F61.3 X154.029 Y122.435 E330.2501
G1 F60.2 X153.489 Y122.384 E331.77594
G1 F59.3 X152.719 Y122.35 E333.97496
G1 F59 X147.81 Y122.35 E348.05697
G1 X147.81 Y119.3 E356.80623
G1 F59.3 X147.778 Y118.73 E358.43532
G1 F60 X147.744 Y117.143 E362.91644
G1 F60.3 X147.744 Y110.797 E380.7297
G1 F60.2 X147.762 Y109.747 E383.68539
G1 F59.6 X147.803 Y108.762 E386.48699
G1 F58.8 X147.836 Y108.211 E388.0751
G1 F57.7 X147.922 Y107.193 E391.07156
G1 F56.4 X147.978 Y106.65 E392.70885
G1 F55.5 X148.031 Y106.188 E394.12747
G1 F55 X148.03 Y104.949 E397.93805
G1 F55.8 X147.773 Y103.891 E401.24152
G1 F56.9 X147.667 Y103.679 E401.94686
G1 F58.4 X147.305 Y102.906 E404.4227
G1 F60.2 X147.118 Y102.485 E405.71817
G1 F60.9 X147.119 Y102.383 E406.00195
G1 F60.2 X147.562 Y102.707 E407.54539
G1 F58.4 X148.197 Y103.149 E409.78953
G1 F56.9 X148.409 Y103.255 E410.49487
G1 F55.8 X149.224 Y103.41 E413.01202
G1 F55 X150.059 Y103.163 E415.69008
G1 F55.9 X150.305 Y102.939 E416.69799
G1 F57.8 X150.883 Y102.434 E418.94703
G1 F59 X151.508 Y101.838 E421.42564
G1 F59.3 X151.87 Y101.354 E423.15232
G1 F59.5 X152.267 Y100.558 E425.68181
G1 F59.8 X152.462 Y99.875 E427.69297
G1 F59.9 X152.542 Y99.208 E429.59098
G1 F60 X152.544 Y98.716 E430.97967
G1 F60 X152.478 Y98.202 E432.44187
G1 X152.36 Y97.747 E433.76817
G1 X152.072 Y97.04 E435.92219
G1 X151.714 Y96.47 E437.8214
G1 X151.212 Y95.891 E439.98363
G1 X150.75 Y95.524 E441.64844
G1 X150.029 Y95.109 E443.99573
G1 X149.61 Y94.952 E445.25824
G1 X148.807 Y94.789 E447.57018
G1 F60.6 X148.342 Y94.977 E448.97195
G1 F61.8 X147.879 Y95.265 E450.46559
G1 F62.9 X147.492 Y95.504 E451.68931
G1 F64.2 X146.89 Y96.032 E453.80031
G1 F65.1 X146.804 Y96.08 E454.05652
G1 X146.804 Y95.982 E454.31147
G1 F64.2 X147.107 Y95.179 E456.57411
G1 F62.9 X147.277 Y94.757 E457.79812
G1 F61.8 X147.53 Y94.153 E459.59193
G1 F60.6 X147.761 Y93.55 E461.39661
G1 F60 X147.76 Y83.815 E488.86472
G1 F60.9 X147.414 Y82.745 E491.99279
G1 F62.2 X147.235 Y82.312 E493.26766
G1 F63.6 X146.891 Y81.432 E495.78167
G1 F65 X146.739 Y80.952 E497.09245
G1 X147.105 Y81.294 E498.39653
G1 F63.6 X147.773 Y81.818 E500.65551
G1 F62.2 X148.189 Y82.034 E501.93091
